src/svg/it-flickr-square.svg

<svg width="24px" height="24px" viewBox="0 0 24 24" version="1.1"
     xmlns="http://www.w3.org/2000/svg">
  <title>Logo Flickr Square</title>
  <g stroke="none" stroke-width="1">
    <rect x="0" y="0" width="24" height="24" fill="none"></rect>
    <path
      d="M20,4 C19.3780693,3.35337046 18.5171386,2.99163487 17.62,3 L6.38,3 C5.48286143,2.99163487 4.62193072,3.35337046 4,4 C3.35590363,4.61953518 2.99438834,5.47632641 3,6.37 L3,17.62 C2.99163487,18.5171386 3.35337046,19.3780693 4,20 C4.62432175,20.6491748 5.48939925,21.011132 6.39,21 L17.63,21 C19.492816,20.9944887 21.0000082,19.4828242 21,17.62 L21,6.37 C21.0056117,5.47632641 20.6440964,4.61953518 20,4 Z M10.44,13.77 C9.46668118,14.7294102 7.90331882,14.7294102 6.93,13.77 C5.95852199,12.7977539 5.95852199,11.2222461 6.93,10.25 C7.90331882,9.29058981 9.46668118,9.29058981 10.44,10.25 C11.411478,11.2222461 11.411478,12.7977539 10.44,13.77 Z M17.05,13.77 C16.3348306,14.4686658 15.2711248,14.6718176 14.3488137,14.285886 C13.4265025,13.8999543 12.8244678,12.9997905 12.82,12 C12.8245494,10.9976926 13.4296316,10.0958249 14.3553639,9.7115586 C15.2810963,9.32729235 16.346985,9.53554948 17.06,10.24 C18.031478,11.2122461 18.031478,12.7877539 17.06,13.76 L17.05,13.77 Z"
    ></path>
  </g>
</svg>

<svg xmlns="http://www.w3.org/2000/svg" viewBox="0 0 24 24"><title>it-flikr-square</title><g><path d="M20,4a3.26,3.26,0,0,0-2.38-1H6.38A3.26,3.26,0,0,0,4,4,3.26,3.26,0,0,0,3,6.37V17.62A3.26,3.26,0,0,0,4,20a3.26,3.26,0,0,0,2.39,1H17.63A3.38,3.38,0,0,0,21,17.62V6.37A3.26,3.26,0,0,0,20,4Zm-9.56,9.77a2.5,2.5,0,0,1-3.51,0,2.49,2.49,0,0,1,0-3.52,2.5,2.5,0,0,1,3.51,0,2.49,2.49,0,0,1,0,3.52Zm6.61,0A2.49,2.49,0,0,1,12.82,12a2.49,2.49,0,0,1,4.24-1.76,2.49,2.49,0,0,1,0,3.52Z"/></g></svg>
